X: 38318
T: Stack Of Barley, The
R: hornpipe
M: 4/4
K: Gmajor
|:gf|e3d BedB|A3G AcBA|GFGA BA (3Bcd|e2 A2 A2 gf|
e3d BedB|A3G AcBA|GFGA BdAc|1 B2G2 G2:|2 B2G2 G3A||
|:(3Bcd ef g2fg|agfg e3f|gfed ed (3Bcd|e2 A2 A2 (3Bcd|
egaf g2 fe|dBAG AcBA|G3A BdAc|B2G2 G2:|

